X:1
T:Waltz in D-flat Major  (Op. 64 No.1)
T:Valse Du Petit Chien (Op.64 No.1)
T:小圆舞曲”小狗“（作品64之1)
T:Frédéric François Chopin
T:弗雷德里克 · 弗朗索瓦 · 肖邦
C:Frédéric François Chopin
Z:弗雷德里克 · 弗朗索瓦 · 肖邦
%%score { 1 | ( 2 3 ) }
L:1/8
Q:3/8=168
M:3/4
K:Db
V:1 treble nm="Piano" snm="Pno."
V:2 bass 
V:3 bass 
V:1
"^Molto Vivace"!p!"_leggiero" (PA2 =GAcB | =GABAcB | =GAcBGA | cB=GAcB |!<(! =GAcBGA | cB=GAcB | %6
 =GAcBGA | Bcdefg)!<)! |!>(! (b3 agf | fePe=d e2) | (b3 agf | fPe=defB)!>)! |!p! (=GAcBGA | %13
 cB=GAcB |!<(! =GAcBGA | Bcdefg)!<)! |!>(! (b3 agf | fePe=d e2)!>)! | (b3 agf | %19
!<(! efPe=de=e)!<)! |:!<(! (3((fg)f =efag | fgf=efb | (3aba =gac'b | aba=gad'!<)! |!>(! c'ba_gfe | %25
 dcBAGF | EDC!>)!!<(!EBA | =GABcde!<)! | (3fgf =efag | fgf=efb | (3aba =gac'b | aba=gaf' | %32
!>(! e'd'c'ba_g | fedcBA | =AcBFGC!>)! |1 D2) z2 (f2 :|2 D2) z2!p!"_rubato" (A2- || A4 E2 | %38
 A4 =E2 | A4 F2 | f4) (f2- | f4 B2 | f4 c2 | e4 d2 | (4:3:4c2 e2 d2 B2 | A4 E2 |!<(! A4 =E2 | %47
 A4 F2 | f6)!<)! | (Tc2 =B2 c2 | a2 _B2 =g2 |!>(! =A2 _g2 _A2 | f2 F2 B2!>)! | (A4) E2 | %54
{/a} A4 =E2 |{/a} A4 F2 |{/a} f4) (f2 |{/a} f4 B2 |{/a} f4 c2 |{/a} e2 d2 c2 |{/a} e2 d3 B | %61
{/a} A4 E2 |{/a} A4 =E2 |!<(!{/a} A4 F2 | f6)!<)! | (f4 B2 | f4 __B2 | %67
[Q:3/8=148]!<(! e2[Q:3/8=128] A2[Q:3/8=108] =d2 |[Q:3/8=88] f2[Q:3/8=68] e2[Q:3/8=48] a2)!<)! | %69
"^a tempo\ntempo guisto"[Q:3/8=168]!p!!<(! TA6- | A6- | A6- | A6 | =GAcBGA | cB=GAcB | =GAcBGA | %76
 cB=GAcB!<)! | =GAcBGA | cB=GAcB | =GAcBGA | Bcdefg |!>(! (b3 agf | fePe=d e2) | (b3 agf | %84
 fPe=defB)!>)! |!p! (=GAcBGA | cB=GAcB |!<(! =GAcBGA | Bcdefg)!<)! |!>(! (b3 agf | fePe=d e2)!>)! | %91
!<(! (b3 agf | efPe=de=e)!<)! |!<(! (3(fgf =efag | fgf=efb | (3aba =gac'b | aba=gad'!<)! | %97
!>(! c'ba_gfe | dcBAGF | EDC!>)!!<(!EBA | =GABcde!<)! | (3fgf =efag | fgf=efb | (3aba =gac'b | %104
 aba=gaf' |!>(! e'd'c'ba_g | fedcBA | =AcBFGC!>)! | D2) z2 (f2 |!<(! (3fgf =efag | fgf=efb | %111
 (3aba =gac'b | aba=gad'!<)! |!>(! c'ba_gfe | dcBAGF | EDC!>)!!<(!EBA | =GABcde!<)! | (3fgf =efag | %118
 fgf=efb | (3aba =gac'b | aba=ga)!8va(!!>(!(f'' | (9:6:9e''d''c''b'a'g'f'e'd'!8va)! | %122
 (9:6:9c'bagfedcB!>)! | %123
[Q:3/8=148]!<(! =A[Q:3/8=128]c[Q:3/8=108]B[Q:3/8=88]F[Q:3/8=68]G[Q:3/8=48]C!<)! |!f! D4) z2 |] %125
V:2
 z6 | z6 | z6 | z6 |!ped! D,2 [A,DF]2 [A,DF]2 |!ped! F,2!ped-up! [A,DF]2 [A,DF]2 | %6
!ped! D,2!ped-up! [A,DF]2 [A,DF]2 |!ped! F,2!ped-up! [A,DF]2 [A,DF]2 | %8
!ped! A,,2!ped-up! [A,CG]2 [A,CG]2 |!ped! E,2!ped-up! [A,CG]2 [A,CG]2 | %10
!ped! A,,2!ped-up! [CG]2 [CG]2 |!ped! E,2!ped-up! [CG]2 [CG]2 |!ped! D,2!ped-up! [A,DF]2 [A,DF]2 | %13
!ped! F,2!ped-up! [A,DF]2 [A,DF]2 |!ped! D,2!ped-up! [A,DF]2 [A,DF]2 | %15
!ped! F,2!ped-up! [A,DF]2 [A,DF]2 |!ped! A,,2!ped-up! [A,CG]2 [A,CG]2 | %17
!ped! E,2!ped-up! [A,CG]2 [A,CG]2 |!ped! A,,2!ped-up! [A,CG]2 [A,CG]2 | %19
!ped! E,2!ped-up! [CG]2 A,,2 |:!ped! =A,,2!ped-up! [F,CE]2 [F,CE]2 | %21
!ped! B,,2!ped-up! [F,D]2 [F,D]2 |!ped! C,2!ped-up! [A,EG]2 [A,EG]2 |!ped! D,2!ped-up! [A,F]2 z2 | %24
!ped! (G,2!ped-up! [B,E]2) z2 |!ped! A,,2!ped-up! [F,A,D]2 z2 | %26
!ped! A,,2!ped-up! [G,A,]2 [G,A,C]2 |!ped! D,2!ped-up! [A,DF]2 z2 |[K:treble] (=A,6 | B,6 | C6 | %31
 D2) [FA]2 z2 |!ped! (G,2 [DEB]2) z2!ped-up! |[K:bass]!ped! A,,2!ped-up! [F,A,D]2 z2 | %34
!ped! A,,2!ped-up! [G,A,]2 [G,A,]2 |1!ped! D,2!ped-up! [A,F]2 z2 :|2!ped! D,2 [A,F]2 z2!ped-up! || %37
!ped! A,,2!ped-up! [G,A,C]2 [G,A,C]2 | [G,A,C]2 [G,A,C]2 [G,A,C]2 | %39
!ped! D,2!ped-up! [A,D]2 [A,D]2 |!ped! A,,2!ped-up! [A,DF]2 [A,DF]2 | %41
!ped! E,2!ped-up! [A,CG]2 [A,CG]2 |!ped! A,,2!ped-up! [A,EG]2 [A,EG]2 | %43
!ped! D,2!ped-up! [A,DF]2 [A,DF]2 |!ped! F,2!ped-up! [A,DF]2 [A,DF]2 | %45
!ped! C,2!ped-up! [G,A,]2 [G,A,]2 |!ped! A,,2!ped-up! [G,A,C]2 [G,A,C]2 | %47
!ped! D,2!ped-up! [A,D]2 [A,D]2 | =B,,2 [A,DF]2 [A,DF]2 |!ped! C,2!ped-up! [A,CF]2 [A,CF]2 | %50
!ped! C,,2!ped-up! [=G,C=E]2 z2 |!ped! F,,2!ped-up! z2 [F,C]2 | z6 | %53
!ped! C,2 [G,A,]2 [G,A,]2!ped-up! |!ped! A,,2!ped-up! [G,A,C]2 [G,A,C]2 | %55
!ped! D,2!ped-up! [A,D]2 [A,D]2 |!ped! A,,2!ped-up! [A,DF]2 [A,DF]2 | %57
!ped! E,2!ped-up! [A,CG]2 [A,CG]2 |!ped! A,,2!ped-up! [A,EG]2 [A,EG]2 | %59
!ped! D,2!ped-up! [A,DF]2 [A,DF]2 |!ped! F,2!ped-up! [A,DF]2 [A,DF]2 | %61
!ped! z2!ped-up! [G,A,]2 [G,A,]2 |!ped! A,,2!ped-up! [G,A,C]2 [G,A,C]2 | %63
!ped! _C,2!ped-up! [F,A,E]2 [F,A,E]2 |!ped! =B,,2!ped-up! [F,A,=D]2 [F,A,D]2 | %65
!ped! E,2!ped-up! [D=G]2 [DG]2 | z2 [D_G]2 [DG]2 |"_rit." A,4 z2 | z6 | z6 | z6 | z6 | z6 | z6 | %74
 z6 | z6 | z6 |!ped! D,,2 [A,DF]2 [A,DF]2!ped-up! |!ped! F,2!ped-up! [A,DF]2 [A,DF]2 | %79
!ped! D,2!ped-up! [A,DF]2 [A,DF]2 |!ped! F,2!ped-up! [A,DF]2 [A,DF]2 | %81
!ped! A,,2!ped-up! [A,CG]2 [A,CG]2 |!ped! E,2!ped-up! [A,CG]2 [A,CG]2 | %83
!ped! A,,2!ped-up! [CG]2 [CG]2 |!ped! E,2!ped-up! [CG]2 [CG]2 |!ped! D,2!ped-up! [A,DF]2 [A,DF]2 | %86
!ped! F,2!ped-up! [A,DF]2 [A,DF]2 |!ped! D,2!ped-up! [A,DF]2 [A,DF]2 | %88
!ped! F,2!ped-up! [A,DF]2 [A,DF]2 |!ped! A,,2!ped-up! [A,CG]2 [A,CG]2 | %90
!ped! E,2!ped-up! [A,CG]2 [A,CG]2 |!ped! A,,2!ped-up! [A,CG]2 [A,CG]2 | %92
!ped! E,2!ped-up! [CG]2 A,,2 |!ped! =A,,2!ped-up! [F,CE]2 [F,CE]2 | %94
!ped! B,,2!ped-up! [F,D]2 [F,D]2 |!ped! C,2!ped-up! [A,EG]2 [A,EG]2 |!ped! D,2!ped-up! [A,F]2 z2 | %97
!ped! (G,2!ped-up! [B,E]2) z2 |!ped! A,,2!ped-up! [F,A,D]2 z2 | %99
!ped! A,,2!ped-up! [G,A,]2 [G,A,C]2 |!ped! D,2!ped-up! [A,DF]2 z2 |[K:treble] (=A,6 | B,6 | C6 | %104
 D2) [FA]2 z2 |!ped! (G,2 [DEB]2) z2!ped-up! |[K:bass]!ped! A,,2!ped-up! [F,A,D]2 z2 | %107
!ped! A,,2!ped-up! [G,A,]2 [G,A,]2 |!ped! D,2!ped-up! [A,F]2 z2 | %109
!ped! =A,,2 [F,CE]2 [F,CE]2!ped-up! |!ped! B,,2!ped-up! [F,D]2 [F,D]2 | %111
!ped! C,2!ped-up! [A,EG]2 [A,EG]2 |!ped! D,2!ped-up! [A,F]2 z2 |!ped! (G,2!ped-up! [B,E]2) z2 | %114
!ped! A,,2!ped-up! [F,A,D]2 z2 |!ped! A,,2!ped-up! [G,A,]2 [G,A,C]2 |!ped! D,2!ped-up! [A,DF]2 z2 | %117
[K:treble] (=A,6 | B,6 | C6 | D2) [FA]2 z2 |!ped! G,2 [DEB]2 z2!ped-up! | z6 | %123
[K:bass]!ped!"_rit." A,,2!ped-up! [G,A,]2 [G,A,]2 |!ped! D,,2!ped-up! [F,A,F]2 z2 |] %125
V:3
 x6 | x6 | x6 | x6 | x6 | x6 | x6 | x6 | x6 | x6 | x6 | x6 | x6 | x6 | x6 | x6 | x6 | x6 | x6 | %19
 x6 |: x6 | x6 | x6 | x6 | x6 | x6 | x6 | x6 |[K:treble] z2 [EF]2 [EF]2 | z2 [DF]2 [DF]2 | %30
 z2 [GA]2 [GA]2 | x6 | x6 |[K:bass] x6 | x6 |1 x6 :|2 x6 || x6 | x6 | x6 | x6 | x6 | x6 | x6 | x6 | %45
 x6 | x6 | x6 | x6 | x6 | x6 | x6 | x6 | x6 | x6 | x6 | x6 | x6 | x6 | x6 | x6 | C,6 | x6 | x6 | %64
 x6 | x6 | x6 | z2 [CG]2 x2 | x6 | x6 | x6 | x6 | x6 | x6 | x6 | x6 | x6 | x6 | x6 | x6 | x6 | x6 | %82
 x6 | x6 | x6 | x6 | x6 | x6 | x6 | x6 | x6 | x6 | x6 | x6 | x6 | x6 | x6 | x6 | x6 | x6 | x6 | %101
[K:treble] z2 [EF]2 [EF]2 | z2 [DF]2 [DF]2 | z2 [GA]2 [GA]2 | x6 | x6 |[K:bass] x6 | x6 | x6 | x6 | %110
 x6 | x6 | x6 | x6 | x6 | x6 | x6 |[K:treble] z2 [EF]2 [EF]2 | z2 [DF]2 [DF]2 | z2 [GA]2 [GA]2 | %120
 x6 | x6 | x6 |[K:bass] x6 | x6 |] %125

